svgs/duotone/folder-xmark.svg

<svg xmlns="http://www.w3.org/2000/svg" viewBox="0 0 512 512"><!--! Font Awesome Pro 6.0.0-alpha3 by @fontawesome - https://fontawesome.com License - https://fontawesome.com/license (Commercial License) --><defs><style>.fa-secondary{opacity:.4}</style></defs><path class="fa-primary" d="M336.1 335c9.375 9.375 9.375 24.56 0 33.94c-9.383 9.379-24.56 9.371-33.94 0L256 321.9l-47.03 47.03c-9.383 9.379-24.56 9.371-33.94 0c-9.375-9.375-9.375-24.56 0-33.94L222.1 288L175 240.1c-9.375-9.375-9.375-24.56 0-33.94s24.56-9.375 33.94 0L256 254.1l47.03-47.03c9.375-9.375 24.56-9.375 33.94 0s9.375 24.56 0 33.94L289.9 288L336.1 335z"/><path class="fa-secondary" d="M464 96h-192l-64-64h-160C21.5 32 0 53.5 0 80v352C0 458.5 21.5 480 48 480h416c26.5 0 48-21.5 48-48v-288C512 117.5 490.5 96 464 96zM336.1 335c9.375 9.375 9.375 24.56 0 33.94c-9.383 9.379-24.56 9.371-33.94 0L256 321.9l-47.03 47.03c-9.383 9.379-24.56 9.371-33.94 0c-9.375-9.375-9.375-24.56 0-33.94L222.1 288L175 240.1c-9.375-9.375-9.375-24.56 0-33.94s24.56-9.375 33.94 0L256 254.1l47.03-47.03c9.375-9.375 24.56-9.375 33.94 0s9.375 24.56 0 33.94L289.9 288L336.1 335z"/></svg>

<svg xmlns="http://www.w3.org/2000/svg" viewBox="0 0 512 512"><!-- Font Awesome Pro 6.0.0-alpha2 by @fontawesome - https://fontawesome.com License - https://fontawesome.com/license (Commercial License) --><defs><style>.fa-secondary{opacity:.4}</style></defs><path d="M464 96H272L208 32H48C21.5 32 0 53.5 0 80V432C0 458.5 21.5 480 48 480H464C490.5 480 512 458.5 512 432V144C512 117.5 490.5 96 464 96ZM336.969 335.031C346.344 344.406 346.344 359.594 336.969 368.969C327.586 378.348 312.406 378.34 303.031 368.969L256 321.938L208.969 368.969C199.586 378.348 184.406 378.34 175.031 368.969C165.656 359.594 165.656 344.406 175.031 335.031L222.062 288L175.031 240.969C165.656 231.594 165.656 216.406 175.031 207.031S199.594 197.656 208.969 207.031L256 254.062L303.031 207.031C312.406 197.656 327.594 197.656 336.969 207.031S346.344 231.594 336.969 240.969L289.938 288L336.969 335.031Z" class="fa-secondary"/><path d="M336.969 335.031C346.344 344.406 346.344 359.594 336.969 368.969C327.586 378.348 312.406 378.34 303.031 368.969L256 321.938L208.969 368.969C199.586 378.348 184.406 378.34 175.031 368.969C165.656 359.594 165.656 344.406 175.031 335.031L222.063 288L175.031 240.969C165.656 231.594 165.656 216.406 175.031 207.031S199.594 197.656 208.969 207.031L256 254.062L303.031 207.031C312.406 197.656 327.594 197.656 336.969 207.031S346.344 231.594 336.969 240.969L289.938 288L336.969 335.031Z" class="fa-primary"/></svg>
